navigator/static/images/icons/logistics.svg

<?xml version="1.0" encoding="UTF-8" standalone="no"?>
<svg width="52px" height="41px" viewBox="0 0 52 41" version="1.1" xmlns="http://www.w3.org/2000/svg" xmlns:xlink="http://www.w3.org/1999/xlink">
    <!-- Generator: Sketch 39.1 (31720) - http://www.bohemiancoding.com/sketch -->
    <title>Page 1</title>
    <desc>Created with Sketch.</desc>
    <defs>
        <polygon id="path-1" points="0.000233407452 40.7858538 51.1751867 40.7858538 51.1751867 0.000525641026 0.000233407452 0.000525641026 0.000233407452 40.7858538"></polygon>
    </defs>
    <g id="solution-3" stroke="none" stroke-width="1" fill="none" fill-rule="evenodd">
        <g id="listing" transform="translate(-984.000000, -1283.000000)">
            <g id="Page-1" transform="translate(984.000000, 1283.000000)">
                <mask id="mask-2" fill="white">
                    <use xlink:href="#path-1"></use>
                </mask>
                <g id="Clip-2"></g>
                <path d="M50.3789796,18.4200385 L32.119551,16.2281154 C31.8616735,16.1976282 31.6377551,16.0041923 31.5316327,15.7224487 L25.6566939,0.000525641026 L45.7202041,4.37701282 C45.9494286,4.42747436 46.1446939,4.60619231 46.2433878,4.85744872 L51.1059184,17.2026538 C51.3436327,17.8060897 50.9371837,18.4873205 50.3789796,18.4200385 L50.3789796,18.4200385 Z M39.7561224,27.6387308 L38.8997143,27.6671154 L38.8827347,34.0641667 C38.8816735,34.3459103 38.6407755,34.6160897 38.3415102,34.6665513 L36.9385714,34.9062436 C36.6180816,34.9609103 36.3559592,34.7664231 36.3570204,34.4699615 L36.3697551,27.7501667 L35.3913061,27.7827564 C34.9158776,27.7985256 34.6144898,27.3454231 34.856449,26.9701154 L37.1837143,23.3663205 C37.404449,23.0246538 37.9456735,23.0561923 38.1579184,23.4167821 L40.2018367,26.8755 C40.3949796,27.2035 40.150898,27.6261154 39.7561224,27.6387308 L39.7561224,27.6387308 Z M46.1319592,19.9223205 L30.6380816,18.3054487 C30.3695918,18.2770641 30.1361224,18.0731154 30.0342449,17.7777051 L27.004449,9.03839744 C26.6224082,7.93560256 26.3093469,8.00919231 26.3093469,9.20239744 L26.3093469,36.5010385 L26.3104082,40.7860641 C26.763551,40.7871154 27.2166939,40.7313974 27.6624082,40.6199615 L45.9027347,36.0626538 C46.2295918,35.9806538 46.4673061,35.6431923 46.4757959,35.2458077 L46.7909796,20.7990897 C46.8005306,20.3459872 46.5118776,19.9622692 46.1319592,19.9223205 L46.1319592,19.9223205 Z M19.0548163,16.2281154 L0.795387755,18.4200385 C0.238244898,18.4873205 -0.168204082,17.8060897 0.0695102041,17.2026538 L4.93097959,4.85744872 C5.02967347,4.60619231 5.22493878,4.42747436 5.45522449,4.37701282 L25.5176735,0.000525641026 L19.6427347,15.7235 C19.5376735,16.0041923 19.3137551,16.1976282 19.0548163,16.2281154 L19.0548163,16.2281154 Z M22.0495918,35.9796026 L15.2015102,34.6697051 L15.2015102,30.4067564 L22.0495918,30.4067564 L22.0495918,35.9796026 Z M24.1699184,9.03839744 L21.1411837,17.7766538 C21.0382449,18.0731154 20.8058367,18.2770641 20.5362857,18.3054487 L5.04346939,19.9223205 C4.6624898,19.9622692 4.37489796,20.3459872 4.38444898,20.7990897 L4.69963265,35.2458077 C4.70812245,35.6431923 4.94583673,35.9806538 5.27269388,36.0626538 L23.5130204,40.6199615 C23.9587347,40.7313974 24.4118776,40.7871154 24.8650204,40.7860641 L24.8650204,36.5010385 L24.8650204,9.20239744 C24.8650204,8.00919231 24.5530204,7.93560256 24.1699184,9.03839744 L24.1699184,9.03839744 Z" id="Fill-1" fill="#1E1348" mask="url(#mask-2)"></path>
            </g>
        </g>
    </g>
</svg>

<svg width="52" height="41" viewBox="0 0 52 41" xmlns="http://www.w3.org/2000/svg" xmlns:xlink="http://www.w3.org/1999/xlink"><title>Page 1</title><defs><path id="a" d="M0 40.786h51.175V0H0v40.785z"/></defs><g fill="none" fill-rule="evenodd"><mask id="b" fill="#fff"><use xlink:href="#a"/></mask><path d="M50.379 18.42l-18.26-2.192c-.257-.03-.481-.224-.587-.506L25.657.001 45.72 4.377c.23.05.425.23.523.48l4.863 12.346c.238.603-.169 1.284-.727 1.217zm-10.623 9.219l-.856.028-.017 6.397c-.001.282-.242.552-.541.603l-1.403.24c-.32.054-.583-.14-.582-.437l.013-6.72-.979.033c-.475.016-.777-.438-.535-.813l2.328-3.604c.22-.341.762-.31.974.05l2.044 3.46c.193.327-.051.75-.446.763zm6.376-7.717l-15.494-1.617c-.268-.028-.502-.232-.604-.527l-3.03-8.74c-.382-1.102-.695-1.029-.695.164v27.299l.001 4.285a5.53 5.53 0 0 0 1.352-.166l18.24-4.557c.328-.082.565-.42.574-.817l.315-14.447c.01-.453-.28-.837-.659-.877zm-27.077-3.694L.795 18.42c-.557.067-.963-.614-.725-1.217L4.93 4.857c.099-.25.294-.43.524-.48L25.518.001l-5.875 15.723c-.105.28-.33.474-.588.504zM22.05 35.98l-6.848-1.31v-4.263h6.848v5.573zm2.12-26.942l-3.029 8.739c-.103.296-.335.5-.605.528L5.043 19.922c-.38.04-.668.424-.659.877L4.7 35.246c.008.397.246.735.573.817l18.24 4.557c.446.111.899.167 1.352.166V9.202c0-1.193-.312-1.266-.695-.164z" fill="#1E1348" mask="url(#b)"/></g></svg>
